;FLAVOR:Marlin
;TIME:3101
;Filament used: 2.60576m
;Layer height: 0.2
;MINX:71.2
;MINY:72.2
;MINZ:0.3
;MAXX:128.8
;MAXY:127.8
;MAXZ:35.9
;Generated with Cura_SteamEngine 4.13.1
M140 S60
M105
M190 S60
M104 S200
M105
M109 S200
M82 ;absolute extrusion mode
G21 ;metric values
 G90 ;absolute positioning
 M82 ;set extruder to absolute mode
 M107 ;start with the fan off
 G28 X0 Y0 ;move X/Y to min endstops
 G28 Z0 ;move Z to min endstops
 G1 Z15.0 F120 ;move the platform down 15mm
 G92 E0 ;zero the extruded length
 G1 F200 E6 ;extrude 6 mm of feed stock
 G92 E0 ;zero the extruded length again
 G1 F120 
 ;Put printing message on LCD screen
 M117 Printing...
G92 E0
G92 E0
G1 F1500 E-6.5
;LAYER_COUNT:179
;LAYER:0
M107
G0 F3600 X73.602 Y74.485 Z0.3
;TYPE:SKIRT
G1 F1500 E0
G1 F3000 X74.188 Y73.955 E0.03942
G1 X74.824 Y73.488 E0.07878
G1 X75.504 Y73.087 E0.11817
G1 X76.222 Y72.757 E0.15759
G1 X76.969 Y72.502 E0.19697
G1 X77.738 Y72.323 E0.23636
G1 X78.522 Y72.223 E0.27579
G1 X79.117 Y72.2 E0.3055
G1 X120.883 Y72.2 E2.38922
G1 X121.672 Y72.24 E2.42863
G1 X122.452 Y72.359 E2.46799
G1 X123.217 Y72.557 E2.50742
G1 X123.957 Y72.831 E2.54679
G1 X124.666 Y73.179 E2.58619
G1 X125.337 Y73.597 E2.62563
G1 X125.961 Y74.08 E2.665
G1 X126.398 Y74.485 E2.69472
G1 X126.515 Y74.602 E2.70298
G1 X127.045 Y75.188 E2.7424
G1 X127.512 Y75.824 E2.78176
G1 X127.913 Y76.504 E2.82115
G1 X128.243 Y77.222 E2.86057
G1 X128.498 Y77.969 E2.89995
G1 X128.677 Y78.738 E2.93934
G1 X128.777 Y79.522 E2.97877
G1 X128.8 Y80.117 E3.00848
G1 X128.8 Y119.883 E4.99241
G1 X128.76 Y120.672 E5.03183
G1 X128.641 Y121.452 E5.07119
G1 X128.443 Y122.217 E5.11062
G1 X128.169 Y122.957 E5.14998
G1 X127.821 Y123.666 E5.18939
G1 X127.403 Y124.337 E5.22883
G1 X126.92 Y124.961 E5.2682
G1 X126.515 Y125.398 E5.29792
G1 X126.398 Y125.515 E5.30618
G1 X125.812 Y126.045 E5.3456
G1 X125.176 Y126.512 E5.38496
G1 X124.496 Y126.913 E5.42435
G1 X123.778 Y127.243 E5.46377
G1 X123.031 Y127.498 E5.50315
G1 X122.262 Y127.677 E5.54254
G1 X121.478 Y127.777 E5.58197
G1 X120.883 Y127.8 E5.61168
G1 X79.117 Y127.8 E7.69539
G1 X78.328 Y127.76 E7.73481
G1 X77.548 Y127.641 E7.77417
G1 X76.783 Y127.443 E7.81359
G1 X76.043 Y127.169 E7.85296
G1 X75.334 Y126.821 E7.89237
G1 X74.663 Y126.403 E7.93181
G1 X74.039 Y125.92 E7.97117
G1 X73.602 Y125.515 E8.0009
G1 X73.485 Y125.398 E8.00915
G1 X72.955 Y124.812 E8.04857
G1 X72.488 Y124.176 E8.08794
G1 X72.087 Y123.496 E8.12732
G1 X71.757 Y122.778 E8.16675
G1 X71.502 Y122.031 E8.20613
G1 X71.323 Y121.262 E8.24552
G1 X71.223 Y120.478 E8.28495
G1 X71.2 Y119.883 E8.31466
G1 X71.2 Y80.117 E10.29859
G1 X71.24 Y79.328 E10.338
G1 X71.359 Y78.548 E10.37737
G1 X71.557 Y77.783 E10.41679
G1 X71.831 Y77.043 E10.45616
G1 X72.179 Y76.334 E10.49556
G1 X72.597 Y75.663 E10.535
G1 X73.08 Y75.039 E10.57437
G1 X73.485 Y74.602 E10.6041
G1 X73.602 Y74.485 E10.61235
G0 F3600 X73.884 Y74.767
G1 F3000 X74.456 Y74.253 E10.65072
G1 X75.078 Y73.8 E10.68911
G1 X75.743 Y73.414 E10.72747
G1 X76.445 Y73.099 E10.76586
G1 X77.176 Y72.859 E10.80424
G1 X77.927 Y72.696 E10.84258
G1 X78.692 Y72.612 E10.88098
G1 X79.117 Y72.6 E10.90219
G1 X120.883 Y72.6 E12.9859
G1 X121.651 Y72.64 E13.02427
G1 X122.411 Y72.759 E13.06265
G1 X123.154 Y72.957 E13.10101
G1 X123.873 Y73.231 E13.1394
G1 X124.559 Y73.578 E13.17775
G1 X125.206 Y73.994 E13.21613
G1 X125.806 Y74.475 E13.25449
G1 X126.233 Y74.884 E13.28399
G1 X126.747 Y75.456 E13.32236
G1 X127.2 Y76.078 E13.36075
G1 X127.586 Y76.743 E13.39911
G1 X127.901 Y77.445 E13.4375
G1 X128.141 Y78.176 E13.47588
G1 X128.304 Y78.927 E13.51422
G1 X128.388 Y79.692 E13.55262
G1 X128.4 Y80.117 E13.57383
G1 X128.4 Y119.883 E15.55776
G1 X128.36 Y120.651 E15.59613
G1 X128.241 Y121.411 E15.63451
G1 X128.043 Y122.154 E15.67287
G1 X127.769 Y122.873 E15.71126
G1 X127.422 Y123.559 E15.74961
G1 X127.006 Y124.206 E15.78799
G1 X126.525 Y124.806 E15.82635
G1 X126.116 Y125.233 E15.85585
G1 X125.544 Y125.747 E15.89422
G1 X124.922 Y126.2 E15.93261
G1 X124.257 Y126.586 E15.97097
G1 X123.555 Y126.901 E16.00936
G1 X122.824 Y127.141 E16.04774
G1 X122.073 Y127.304 E16.08608
G1 X121.308 Y127.388 E16.12448
G1 X120.883 Y127.4 E16.14569
G1 X79.117 Y127.4 E18.2294
G1 X78.349 Y127.36 E18.26777
G1 X77.589 Y127.241 E18.30615
G1 X76.846 Y127.043 E18.34451
G1 X76.127 Y126.769 E18.3829
G1 X75.441 Y126.422 E18.42125
G1 X74.794 Y126.006 E18.45963
G1 X74.194 Y125.525 E18.49799
G1 X73.767 Y125.116 E18.52749
G1 X73.253 Y124.544 E18.56586
G1 X72.8 Y123.922 E18.60425
G1 X72.414 Y123.257 E18.64261
G1 X72.099 Y122.555 E18.681
G1 X71.859 Y121.824 E18.71938
G1 X71.696 Y121.073 E18.75772
G1 X71.612 Y120.308 E18.79612
G1 X71.6 Y119.883 E18.81733
G1 X71.6 Y80.117 E20.80126
G1 X71.64 Y79.349 E20.83963
G1 X71.759 Y78.589 E20.87801
G1 X71.957 Y77.846 E20.91637
G1 X72.231 Y77.127 E20.95476
G1 X72.578 Y76.441 E20.99311
G1 X72.994 Y75.794 E21.03149
G1 X73.475 Y75.194 E21.06985
G1 X73.884 Y74.767 E21.09935
G0 F3600 X74.167 Y75.05
G1 F3000 X74.724 Y74.55 E21.13669
G1 X75.33 Y74.113 E21.17397
G1 X75.98 Y73.742 E21.21131
G1 X76.666 Y73.443 E21.24864
G1 X77.38 Y73.219 E21.28597
G1 X78.113 Y73.072 E21.32327
G1 X79.117 Y73 E21.37349
G1 X120.883 Y73 E23.45721
G1 X121.63 Y73.04 E23.49453
G1 X122.368 Y73.159 E23.53182
G1 X123.09 Y73.357 E23.56917
G1 X123.786 Y73.63 E23.60647
G1 X124.449 Y73.977 E23.6438
G1 X125.072 Y74.392 E23.68115
G1 X125.833 Y75.05 E23.73134
G1 X125.95 Y75.167 E23.7396
G1 X126.45 Y75.724 E23.77694
G1 X126.887 Y76.33 E23.81421
G1 X127.258 Y76.98 E23.85155
G1 X127.557 Y77.666 E23.88889
G1 X127.781 Y78.38 E23.92622
G1 X127.928 Y79.113 E23.96352
G1 X128 Y80.117 E24.01374
G1 X128 Y119.883 E25.99767
G1 X127.96 Y120.63 E26.03499
G1 X127.841 Y121.368 E26.07229
G1 X127.643 Y122.09 E26.10964
G1 X127.37 Y122.786 E26.14694
G1 X127.023 Y123.449 E26.18427
G1 X126.608 Y124.072 E26.22162
G1 X125.95 Y124.833 E26.27181
G1 X125.833 Y124.95 E26.28006
G1 X125.276 Y125.45 E26.3174
G1 X124.67 Y125.887 E26.35468
G1 X124.02 Y126.258 E26.39202
G1 X123.334 Y126.557 E26.42935
G1 X122.62 Y126.781 E26.46669
G1 X121.887 Y126.928 E26.50398
G1 X120.883 Y127 E26.5542
G1 X79.117 Y127 E28.63792
G1 X78.37 Y126.96 E28.67524
G1 X77.632 Y126.841 E28.71253
G1 X76.91 Y126.643 E28.74988
G1 X76.214 Y126.37 E28.78718
G1 X75.551 Y126.023 E28.82452
G1 X74.928 Y125.608 E28.86186
G1 X74.167 Y124.95 E28.91205
G1 X74.05 Y124.833 E28.92031
G1 X73.55 Y124.276 E28.95765
G1 X73.113 Y123.67 E28.99493
G1 X72.742 Y123.02 E29.03226
G1 X72.443 Y122.334 E29.0696
G1 X72.219 Y121.62 E29.10693
G1 X72.072 Y120.887 E29.14423
G1 X72 Y119.883 E29.19445
G1 X72 Y80.117 E31.17838
G1 X72.04 Y79.37 E31.2157
G1 X72.159 Y78.632 E31.253
G1 X72.357 Y77.91 E31.29035
G1 X72.63 Y77.214 E31.32765
G1 X72.977 Y76.551 E31.36498
G1 X73.392 Y75.928 E31.40233
G1 X74.05 Y75.167 E31.45252
G1 X74.167 Y75.05 E31.46077
G0 F3600 X74.45 Y75.333
G1 F3000 X74.991 Y74.849 E31.49699
G1 X75.582 Y74.426 E31.53325
G1 X76.216 Y74.072 E31.56948
G1 X76.885 Y73.789 E31.60572
G1 X77.581 Y73.581 E31.64196
G1 X78.296 Y73.451 E31.67821
G1 X79.117 Y73.4 E31.71925
G1 X120.883 Y73.4 E33.80297
G1 X121.608 Y73.44 E33.83919
G1 X122.325 Y73.559 E33.87545
G1 X123.024 Y73.757 E33.9117
G1 X123.697 Y74.03 E33.94793
G1 X124.336 Y74.375 E33.98416
G1 X124.933 Y74.789 E34.02041
G1 X125.55 Y75.333 E34.06144
G1 X125.667 Y75.45 E34.0697
G1 X126.151 Y75.991 E34.10591
G1 X126.574 Y76.582 E34.14217
G1 X126.928 Y77.216 E34.1784
G1 X127.211 Y77.885 E34.21464
G1 X127.419 Y78.581 E34.25088
G1 X127.549 Y79.296 E34.28714
G1 X127.6 Y80.117 E34.32818
G1 X127.6 Y119.883 E36.31211
G1 X127.56 Y120.608 E36.34834
G1 X127.441 Y121.325 E36.3846
G1 X127.243 Y122.024 E36.42084
G1 X126.97 Y122.697 E36.45707
G1 X126.625 Y123.336 E36.4933
G1 X126.211 Y123.933 E36.52955
G1 X125.667 Y124.55 E36.57059
G1 X125.55 Y124.667 E36.57884
G1 X125.009 Y125.151 E36.61506
G1 X124.418 Y125.574 E36.65132
G1 X123.784 Y125.928 E36.68754
G1 X123.115 Y126.211 E36.72378
G1 X122.419 Y126.419 E36.76003
G1 X121.704 Y126.549 E36.79628
G1 X120.883 Y126.6 E36.83732
G1 X79.117 Y126.6 E38.92104
G1 X78.392 Y126.56 E38.95726
G1 X77.675 Y126.441 E38.99352
G1 X76.976 Y126.243 E39.02977
G1 X76.303 Y125.97 E39.066
G1 X75.664 Y125.625 E39.10223
G1 X75.067 Y125.211 E39.13847
G1 X74.45 Y124.667 E39.17951
G1 X74.333 Y124.55 E39.18777
G1 X73.849 Y124.009 E39.22398
G1 X73.426 Y123.418 E39.26024
G1 X73.072 Y122.784 E39.29647
G1 X72.789 Y122.115 E39.33271
G1 X72.581 Y121.419 E39.36895
G1 X72.451 Y120.704 E39.40521
G1 X72.4 Y119.883 E39.44625
G1 X72.4 Y80.117 E41.43018
G1 X72.44 Y79.392 E41.46641
G1 X72.559 Y78.675 E41.50267
G1 X72.757 Y77.976 E41.53891
G1 X73.03 Y77.303 E41.57514
G1 X73.375 Y76.664 E41.61137
G1 X73.789 Y76.067 E41.64762
G1 X74.333 Y75.45 E41.68866
G1 X74.45 Y75.333 E41.69691
G0 F3600 X74.733 Y75.616
G1 F3000 X75.258 Y75.147 E41.73203
G1 X75.833 Y74.741 E41.76715
G1 X76.451 Y74.403 E41.80229
G1 X77.102 Y74.136 E41.8374
G1 X77.78 Y73.946 E41.87253
G1 X78.475 Y73.833 E41.90766
G1 X79.117 Y73.8 E41.93973
G1 X120.883 Y73.8 E44.02344
G1 X121.586 Y73.84 E44.05857
G1 X122.28 Y73.959 E44.0937
G1 X122.955 Y74.157 E44.12879
G1 X123.604 Y74.429 E44.1639
G1 X124.218 Y74.774 E44.19904
G1 X124.789 Y75.185 E44.23414
G1 X125.267 Y75.616 E44.26625
G1 X125.384 Y75.733 E44.2745
G1 X125.853 Y76.258 E44.30963
G1 X126.259 Y76.833 E44.34474
G1 X126.597 Y77.451 E44.37989
G1 X126.864 Y78.102 E44.41499
G1 X127.054 Y78.78 E44.45012
G1 X127.167 Y79.475 E44.48525
G1 X127.2 Y80.117 E44.51732
G1 X127.2 Y119.883 E46.50125
G1 X127.16 Y120.586 E46.53638
G1 X127.041 Y121.28 E46.57151
G1 X126.843 Y121.955 E46.60661
G1 X126.571 Y122.604 E46.64171
G1 X126.226 Y123.218 E46.67685
G1 X125.815 Y123.789 E46.71195
G1 X125.384 Y124.267 E46.74406
G1 X125.267 Y124.384 E46.75232
G1 X124.742 Y124.853 E46.78744
G1 X124.167 Y125.259 E46.82255
G1 X123.549 Y125.597 E46.8577
G1 X122.898 Y125.864 E46.8928
G1 X122.22 Y126.054 E46.92793
G1 X121.525 Y126.167 E46.96306
G1 X120.883 Y126.2 E46.99513
G1 X79.117 Y126.2 E49.07884
G1 X78.414 Y126.16 E49.11397
G1 X77.72 Y126.041 E49.1491
G1 X77.045 Y125.843 E49.1842
G1 X76.396 Y125.571 E49.21931
G1 X75.782 Y125.226 E49.25444
G1 X75.211 Y124.815 E49.28954
G1 X74.733 Y124.384 E49.32165
G1 X74.616 Y124.267 E49.32991
G1 X74.147 Y123.742 E49.36503
G1 X73.741 Y123.167 E49.40015
G1 X73.403 Y122.549 E49.43529
G1 X73.136 Y121.898 E49.47039
G1 X72.946 Y121.22 E49.50552
G1 X72.833 Y120.525 E49.54065
G1 X72.8 Y119.883 E49.57272
G1 X72.8 Y80.117 E51.55666
G1 X72.84 Y79.414 E51.59178
G1 X72.959 Y78.72 E51.62691
G1 X73.157 Y78.045 E51.66201
G1 X73.429 Y77.396 E51.69712
G1 X73.774 Y76.782 E51.73225
G1 X74.185 Y76.211 E51.76735
G1 X74.616 Y75.733 E51.79946
G1 X74.733 Y75.616 E51.80772
G0 F3600 X75.016 Y75.899
G1 F3000 X75.525 Y75.446 E51.84171
G1 X76.083 Y75.057 E51.87565
G1 X76.683 Y74.735 E51.90962
G1 X77.317 Y74.486 E51.9436
G1 X77.976 Y74.313 E51.97759
G1 X78.65 Y74.219 E52.01155
G1 X79.117 Y74.2 E52.03486
G1 X120.883 Y74.2 E54.11858
G1 X121.563 Y74.24 E54.15256
G1 X122.233 Y74.359 E54.18651
G1 X122.885 Y74.556 E54.22049
G1 X123.509 Y74.828 E54.25445
G1 X124.097 Y75.172 E54.28844
G1 X124.641 Y75.582 E54.32243
G1 X125.101 Y76.016 E54.35398
G1 X125.554 Y76.525 E54.38797
G1 X125.943 Y77.083 E54.42191
G1 X126.265 Y77.683 E54.45588
G1 X126.514 Y78.317 E54.48986
G1 X126.687 Y78.976 E54.52385
G1 X126.781 Y79.65 E54.55781
G1 X126.8 Y80.117 E54.58112
G1 X126.8 Y119.883 E56.56506
G1 X126.76 Y120.563 E56.59904
G1 X126.641 Y121.233 E56.63299
G1 X126.444 Y121.885 E56.66697
G1 X126.172 Y122.509 E56.70093
G1 X125.828 Y123.097 E56.73492
G1 X125.418 Y123.641 E56.7689
G1 X124.984 Y124.101 E56.80046
G1 X124.475 Y124.554 E56.83445
G1 X123.917 Y124.943 E56.86839
G1 X123.317 Y125.265 E56.90236
G1 X122.683 Y125.514 E56.93634
G1 X122.024 Y125.687 E56.97033
G1 X121.35 Y125.781 E57.00428
G1 X120.883 Y125.8 E57.0276
G1 X79.117 Y125.8 E59.11132
G1 X78.437 Y125.76 E59.1453
G1 X77.767 Y125.641 E59.17925
G1 X77.115 Y125.444 E59.21323
G1 X76.491 Y125.172 E59.24719
G1 X75.903 Y124.828 E59.28118
G1 X75.359 Y124.418 E59.31516
G1 X74.899 Y123.984 E59.34672
G1 X74.446 Y123.475 E59.38071
G1 X74.057 Y122.917 E59.41465
G1 X73.735 Y122.317 E59.44862
G1 X73.486 Y121.683 E59.4826
G1 X73.313 Y121.024 E59.51659
G1 X73.219 Y120.35 E59.55054
G1 X73.2 Y119.883 E59.57386
G1 X73.2 Y80.117 E61.5578
G1 X73.24 Y79.437 E61.59178
G1 X73.359 Y78.767 E61.62573
G1 X73.556 Y78.115 E61.65971
G1 X73.828 Y77.491 E61.69367
G1 X74.172 Y76.903 E61.72766
G1 X74.582 Y76.359 E61.76164
G1 X75.016 Y75.899 E61.79319
G0 F3600 X75.299 Y76.182
G1 F3000 X75.791 Y75.746 E61.82599
G1 X76.332 Y75.374 E61.85875
G1 X76.914 Y75.07 E61.89151
G1 X77.529 Y74.839 E61.92428
G1 X78.168 Y74.684 E61.95709
G1 X79.117 Y74.6 E62.00462
G1 X120.883 Y74.6 E64.08833
G1 X121.539 Y74.64 E64.12112
G1 X122.185 Y74.759 E64.15389
G1 X122.812 Y74.956 E64.18668
G1 X123.41 Y75.228 E64.21945
G1 X123.971 Y75.57 E64.25223
G1 X124.701 Y76.182 E64.29976
G1 X124.818 Y76.299 E64.30801
G1 X125.254 Y76.791 E64.34081
G1 X125.626 Y77.332 E64.37357
G1 X125.93 Y77.914 E64.40633
G1 X126.161 Y78.529 E64.4391
G1 X126.316 Y79.168 E64.47191
G1 X126.4 Y80.117 E64.51944
G1 X126.4 Y119.883 E66.50337
G1 X126.36 Y120.539 E66.53616
G1 X126.241 Y121.185 E66.56893
G1 X126.044 Y121.812 E66.60172
G1 X125.772 Y122.41 E66.63449
G1 X125.43 Y122.971 E66.66727
G1 X124.818 Y123.701 E66.7148
G1 X124.701 Y123.818 E66.72305
G1 X124.209 Y124.254 E66.75585
G1 X123.668 Y124.626 E66.78861
G1 X123.086 Y124.93 E66.82137
G1 X122.471 Y125.161 E66.85414
G1 X121.832 Y125.316 E66.88695
G1 X120.883 Y125.4 E66.93448
G1 X79.117 Y125.4 E69.01819
G1 X78.461 Y125.36 E69.05098
G1 X77.815 Y125.241 E69.08375
G1 X77.188 Y125.044 E69.11654
G1 X76.59 Y124.772 E69.14932
G1 X76.029 Y124.43 E69.18209
G1 X75.299 Y123.818 E69.22962
G1 X75.182 Y123.701 E69.23787
G1 X74.746 Y123.209 E69.27067
G1 X74.374 Y122.668 E69.30343
G1 X74.07 Y122.086 E69.33619
G1 X73.839 Y121.471 E69.36896
G1 X73.684 Y120.832 E69.40177
G1 X73.6 Y119.883 E69.4493
G1 X73.6 Y80.117 E71.43323
G1 X73.64 Y79.461 E71.46602
G1 X73.759 Y78.815 E71.49879
G1 X73.956 Y78.188 E71.53158
G1 X74.228 Y77.59 E71.56436
G1 X74.57 Y77.029 E71.59713
G1 X75.182 Y76.299 E71.64466
G1 X75.299 Y76.182 E71.65291
G0 F3600 X75.581 Y76.464
G1 F3000 X76.056 Y76.047 E71.68445
G1 X76.579 Y75.692 E71.71598
G1 X77.143 Y75.406 E71.74753
G1 X77.738 Y75.194 E71.77905
G1 X78.356 Y75.058 E71.81062
G1 X79.117 Y75 E71.84869
G1 X120.883 Y75 E73.93241
G1 X121.514 Y75.04 E73.96395
G1 X122.135 Y75.159 E73.9955
G1 X122.735 Y75.356 E74.027
G1 X123.307 Y75.627 E74.05858
G1 X123.839 Y75.967 E74.09008
G1 X124.419 Y76.464 E74.12819
G1 X124.536 Y76.581 E74.13644
G1 X124.953 Y77.056 E74.16798
G1 X125.308 Y77.579 E74.19951
G1 X125.594 Y78.143 E74.23106
G1 X125.806 Y78.738 E74.26257
G1 X125.942 Y79.356 E74.29414
G1 X126 Y80.117 E74.33222
G1 X126 Y119.883 E76.31615
G1 X125.96 Y120.514 E76.3477
G1 X125.841 Y121.135 E76.37924
G1 X125.644 Y121.735 E76.41075
G1 X125.373 Y122.307 E76.44233
G1 X125.033 Y122.839 E76.47383
G1 X124.536 Y123.419 E76.51193
G1 X124.419 Y123.536 E76.52019
G1 X123.944 Y123.953 E76.55172
G1 X123.421 Y124.308 E76.58326
G1 X122.857 Y124.594 E76.61481
G1 X122.262 Y124.806 E76.64632
G1 X121.644 Y124.942 E76.67789
G1 X120.883 Y125 E76.71597
G1 X79.117 Y125 E78.79968
G1 X78.486 Y124.96 E78.83122
G1 X77.865 Y124.841 E78.86277
G1 X77.265 Y124.644 E78.89428
G1 X76.693 Y124.373 E78.92585
G1 X76.161 Y124.033 E78.95735
G1 X75.581 Y123.536 E78.99546
G1 X75.464 Y123.419 E79.00371
G1 X75.047 Y122.944 E79.03525
G1 X74.692 Y122.421 E79.06678
G1 X74.406 Y121.857 E79.09833
G1 X74.194 Y121.262 E79.12985
G1 X74.058 Y120.644 E79.16142
G1 X74 Y119.883 E79.19949
G1 X74 Y80.117 E81.18343
G1 X74.04 Y79.486 E81.21497
G1 X74.159 Y78.865 E81.24652
G1 X74.356 Y78.265 E81.27802
G1 X74.627 Y77.693 E81.3096
G1 X74.967 Y77.161 E81.3411
G1 X75.464 Y76.581 E81.37921
G1 X75.581 Y76.464 E81.38746
G0 F3600 X75.864 Y76.747
G1 F3000 X76.32 Y76.348 E81.41769
G1 X76.825 Y76.012 E81.44795
G1 X77.369 Y75.745 E81.47819
G1 X77.944 Y75.552 E81.50844
G1 X78.539 Y75.436 E81.53869
G1 X79.117 Y75.4 E81.56758
G1 X120.883 Y75.4 E83.65129
G1 X121.488 Y75.44 E83.68154
