;FLAVOR:Marlin
;TIME:1106
;Filament used: 1.3218m
;Layer height: 0.2
;MINX:82.523
;MINY:85.543
;MINZ:0.3
;MAXX:112.111
;MAXY:115.137
;MAXZ:19.9
;Generated with Cura_SteamEngine 4.13.1
M140 S60
M105
M190 S60
M104 S200
M105
M109 S200
M82 ;absolute extrusion mode
G21 ;metric values
 G90 ;absolute positioning
 M82 ;set extruder to absolute mode
 M107 ;start with the fan off
 G28 X0 Y0 ;move X/Y to min endstops
 G28 Z0 ;move Z to min endstops
 G1 Z15.0 F120 ;move the platform down 15mm
 G92 E0 ;zero the extruded length
 G1 F200 E6 ;extrude 6 mm of feed stock
 G92 E0 ;zero the extruded length again
 G1 F120 
 ;Put printing message on LCD screen
 M117 Printing...
G92 E0
G92 E0
G1 F1500 E-6.5
;LAYER_COUNT:100
;LAYER:0
M107
G0 F3600 X89.694 Y93.013 Z0.3
;TYPE:SKIRT
G1 F1500 E0
G1 F3000 X90.277 Y92.493 E0.03897
G1 X90.736 Y92.123 E0.06839
G1 X91.375 Y91.659 E0.10779
G1 X92.023 Y91.28 E0.14524
G1 X92.554 Y91.003 E0.17512
G1 X93.272 Y90.674 E0.21452
G1 X93.96 Y90.436 E0.25084
G1 X94.524 Y90.27 E0.28017
G1 X95.292 Y90.086 E0.31957
G1 X95.99 Y89.988 E0.35474
G1 X96.581 Y89.932 E0.38435
G1 X97.37 Y89.897 E0.42376
G1 X98.053 Y89.932 E0.45788
G1 X98.644 Y89.988 E0.48749
G1 X99.425 Y90.102 E0.52687
G1 X100.211 Y90.301 E0.56732
G1 X100.616 Y90.417 E0.58834
G1 X101.364 Y90.671 E0.62775
G1 X102.144 Y91.032 E0.67063
G1 X102.665 Y91.309 E0.70007
G1 X103.342 Y91.714 E0.73943
G1 X103.892 Y92.118 E0.77347
G1 X104.352 Y92.488 E0.80293
G1 X104.941 Y93.014 E0.84232
G1 X105.473 Y93.594 E0.88159
G1 X105.847 Y94.046 E0.91086
G1 X106.319 Y94.679 E0.95025
G1 X106.678 Y95.271 E0.98479
G1 X106.959 Y95.784 E1.01397
G1 X107.303 Y96.495 E1.05338
G1 X107.565 Y97.23 E1.09231
G1 X107.712 Y97.672 E1.11555
G1 X107.918 Y98.434 E1.15493
G1 X108.059 Y99.344 E1.20087
G1 X108.114 Y99.922 E1.22984
G1 X108.149 Y100.711 E1.26924
G1 X108.114 Y101.396 E1.30346
G1 X108.059 Y101.977 E1.33257
G1 X107.945 Y102.758 E1.37195
G1 X107.723 Y103.62 E1.41636
G1 X107.546 Y104.173 E1.44533
G1 X107.267 Y104.912 E1.48474
G1 X106.972 Y105.516 E1.51827
G1 X106.693 Y106.03 E1.54745
G1 X106.282 Y106.704 E1.58684
G1 X105.779 Y107.363 E1.6282
G1 X105.487 Y107.716 E1.65105
G1 X104.956 Y108.3 E1.69043
G1 X104.238 Y108.93 E1.73809
G1 X103.917 Y109.189 E1.75866
G1 X103.279 Y109.654 E1.79805
G1 X102.583 Y110.056 E1.83815
G1 X102.164 Y110.283 E1.86193
G1 X101.45 Y110.62 E1.90132
G1 X100.651 Y110.899 E1.94354
G1 X100.078 Y111.065 E1.9733
G1 X99.31 Y111.246 E2.01267
G1 X98.644 Y111.338 E2.04621
G1 X98.053 Y111.394 E2.07583
G1 X97.264 Y111.429 E2.11523
G1 X96.581 Y111.394 E2.14935
G1 X95.99 Y111.338 E2.17896
G1 X95.209 Y111.224 E2.21834
G1 X94.527 Y111.057 E2.25337
G1 X93.962 Y110.891 E2.28275
G1 X93.217 Y110.63 E2.32213
G1 X92.551 Y110.321 E2.35876
G1 X91.997 Y110.031 E2.38996
G1 X91.898 Y109.977 E2.39559
G1 X91.225 Y109.564 E2.43498
G1 X90.759 Y109.218 E2.46394
G1 X90.298 Y108.849 E2.4934
G1 X89.707 Y108.325 E2.5328
G1 X89.181 Y107.755 E2.5715
G1 X88.805 Y107.304 E2.60079
G1 X88.331 Y106.672 E2.64021
G1 X87.946 Y106.04 E2.67713
G1 X87.666 Y105.526 E2.70633
G1 X87.324 Y104.815 E2.74569
G1 X87.07 Y104.091 E2.78397
G1 X86.921 Y103.649 E2.80724
G1 X86.716 Y102.887 E2.84661
G1 X86.577 Y101.995 E2.89165
G1 X86.521 Y101.417 E2.92062
G1 X86.485 Y100.628 E2.96002
G1 X86.534 Y99.789 E3.00195
G1 X86.574 Y99.368 E3.02305
G1 X86.686 Y98.586 E3.06246
G1 X86.91 Y97.714 E3.10738
G1 X87.086 Y97.162 E3.13628
G1 X87.363 Y96.422 E3.17571
G1 X87.662 Y95.81 E3.20969
G1 X87.941 Y95.296 E3.23886
G1 X88.352 Y94.622 E3.27825
G1 X88.911 Y93.897 E3.32392
G1 X89.161 Y93.595 E3.34348
G1 X89.694 Y93.013 E3.38286
G0 F3600 X89.99 Y93.284
G1 F3000 X90.528 Y92.805 E3.41879
G1 X90.987 Y92.435 E3.44821
G1 X91.61 Y91.984 E3.48658
G1 X92.208 Y91.635 E3.52112
G1 X92.739 Y91.358 E3.551
G1 X93.439 Y91.038 E3.5894
G1 X94.073 Y90.82 E3.62285
G1 X94.637 Y90.654 E3.65218
G1 X95.385 Y90.476 E3.69054
G1 X96.028 Y90.386 E3.72293
G1 X96.619 Y90.33 E3.75255
G1 X97.387 Y90.297 E3.7909
G1 X98.015 Y90.33 E3.82227
G1 X98.606 Y90.386 E3.85189
G1 X99.367 Y90.498 E3.89027
G1 X100.102 Y90.686 E3.92812
G1 X100.507 Y90.801 E3.94912
G1 X101.235 Y91.05 E3.98751
G1 X101.956 Y91.385 E4.02717
G1 X102.477 Y91.662 E4.05661
G1 X103.136 Y92.058 E4.09497
G1 X103.641 Y92.43 E4.12626
G1 X104.101 Y92.8 E4.15571
G1 X104.674 Y93.312 E4.19405
G1 X105.164 Y93.849 E4.23031
G1 X105.538 Y94.301 E4.25958
G1 X105.997 Y94.918 E4.29795
G1 X106.327 Y95.463 E4.32974
G1 X106.608 Y95.976 E4.35892
G1 X106.942 Y96.669 E4.3973
G1 X107.185 Y97.353 E4.43351
G1 X107.332 Y97.795 E4.45675
G1 X107.531 Y98.538 E4.49513
G1 X107.661 Y99.382 E4.53773
G1 X107.716 Y99.96 E4.5667
G1 X107.749 Y100.728 E4.60505
G1 X107.716 Y101.358 E4.63652
G1 X107.661 Y101.939 E4.66564
G1 X107.549 Y102.7 E4.70401
G1 X107.342 Y103.498 E4.74514
G1 X107.165 Y104.051 E4.77411
G1 X106.893 Y104.77 E4.81246
G1 X106.621 Y105.325 E4.8433
G1 X106.342 Y105.839 E4.87248
G1 X105.94 Y106.495 E4.91086
G1 X105.475 Y107.103 E4.94905
G1 X105.178 Y107.462 E4.97229
G1 X104.66 Y108.03 E5.01065
G1 X103.97 Y108.631 E5.0563
G1 X103.665 Y108.878 E5.07588
G1 X103.043 Y109.331 E5.11427
G1 X102.341 Y109.735 E5.15468
G1 X101.975 Y109.93 E5.17537
G1 X101.279 Y110.257 E5.21373
G1 X100.54 Y110.515 E5.25278
G1 X99.967 Y110.681 E5.28254
G1 X99.218 Y110.856 E5.32092
G1 X98.606 Y110.94 E5.35174
G1 X98.015 Y110.996 E5.38135
G1 X97.247 Y111.029 E5.41971
G1 X96.619 Y110.996 E5.45108
G1 X96.028 Y110.94 E5.4807
G1 X95.267 Y110.828 E5.51907
G1 X94.64 Y110.673 E5.5513
G1 X94.075 Y110.507 E5.58067
G1 X93.349 Y110.252 E5.61906
G1 X92.736 Y109.967 E5.65279
G1 X92.188 Y109.679 E5.68368
G1 X92.089 Y109.625 E5.6893
G1 X91.434 Y109.223 E5.72764
G1 X91.009 Y108.906 E5.7541
G1 X90.548 Y108.537 E5.78356
G1 X89.973 Y108.026 E5.82193
G1 X89.488 Y107.499 E5.85767
G1 X89.112 Y107.048 E5.88696
G1 X88.651 Y106.432 E5.92535
G1 X88.298 Y105.849 E5.95935
G1 X88.018 Y105.335 E5.98855
G1 X87.685 Y104.641 E6.02695
G1 X87.449 Y103.969 E6.06249
G1 X87.302 Y103.526 E6.08577
G1 X87.103 Y102.783 E6.12415
G1 X86.975 Y101.957 E6.16585
G1 X86.919 Y101.379 E6.19482
G1 X86.885 Y100.61 E6.23322
G1 X86.929 Y99.871 E6.27016
G1 X86.972 Y99.404 E6.29355
G1 X87.082 Y98.643 E6.33192
G1 X87.291 Y97.835 E6.37355
G1 X87.467 Y97.283 E6.40246
G1 X87.738 Y96.563 E6.44084
G1 X88.013 Y96.001 E6.47206
G1 X88.292 Y95.487 E6.50123
G1 X88.694 Y94.831 E6.53962
G1 X89.191 Y94.185 E6.58028
G1 X89.469 Y93.85 E6.602
G1 X89.99 Y93.284 E6.64038
G0 F3600 X90.284 Y93.555
G1 F3000 X90.779 Y93.116 E6.67339
G1 X91.238 Y92.746 E6.7028
G1 X91.845 Y92.308 E6.74015
G1 X92.393 Y91.99 E6.77175
G1 X92.924 Y91.713 E6.80163
G1 X93.605 Y91.403 E6.83896
G1 X94.186 Y91.204 E6.8696
G1 X94.75 Y91.038 E6.89894
G1 X95.477 Y90.865 E6.93622
G1 X96.066 Y90.784 E6.96588
G1 X96.657 Y90.728 E6.9955
G1 X97.404 Y90.698 E7.0328
G1 X97.977 Y90.728 E7.06142
G1 X98.568 Y90.784 E7.09104
G1 X99.308 Y90.894 E7.12836
G1 X99.975 Y91.065 E7.16272
G1 X100.397 Y91.186 E7.18462
G1 X101.105 Y91.429 E7.22196
G1 X101.768 Y91.738 E7.25846
G1 X102.289 Y92.015 E7.28789
G1 X102.93 Y92.401 E7.32522
G1 X103.39 Y92.742 E7.35379
G1 X103.85 Y93.112 E7.38324
G1 X104.407 Y93.611 E7.42055
G1 X104.856 Y94.104 E7.45382
G1 X105.23 Y94.556 E7.48309
G1 X105.676 Y95.157 E7.52043
G1 X105.976 Y95.655 E7.54943
G1 X106.257 Y96.168 E7.57862
G1 X106.581 Y96.842 E7.61593
G1 X106.835 Y97.559 E7.65387
G1 X106.951 Y97.919 E7.67274
G1 X107.144 Y98.642 E7.71008
G1 X107.263 Y99.42 E7.74934
G1 X107.318 Y99.998 E7.77831
G1 X107.348 Y100.745 E7.81561
G1 X107.318 Y101.321 E7.84438
G1 X107.263 Y101.902 E7.8735
G1 X107.153 Y102.642 E7.91082
G1 X106.961 Y103.376 E7.94868
G1 X106.784 Y103.929 E7.97764
G1 X106.518 Y104.628 E8.01496
G1 X106.269 Y105.134 E8.04309
G1 X105.99 Y105.648 E8.07227
G1 X105.599 Y106.286 E8.1096
G1 X105.17 Y106.844 E8.14472
G1 X104.869 Y107.208 E8.16828
G1 X104.364 Y107.76 E8.20561
G1 X103.748 Y108.297 E8.24638
G1 X103.413 Y108.567 E8.26784
G1 X102.808 Y109.007 E8.30517
G1 X102.14 Y109.388 E8.34353
G1 X101.787 Y109.577 E8.36351
G1 X101.109 Y109.895 E8.40087
G1 X100.429 Y110.131 E8.43678
G1 X99.856 Y110.297 E8.46654
G1 X99.127 Y110.466 E8.50388
G1 X98.568 Y110.542 E8.53202
G1 X97.977 Y110.598 E8.56164
G1 X97.23 Y110.628 E8.59894
G1 X96.657 Y110.598 E8.62756
G1 X96.066 Y110.542 E8.65718
G1 X95.326 Y110.432 E8.69451
G1 X94.753 Y110.289 E8.72397
G1 X94.188 Y110.123 E8.75335
G1 X93.482 Y109.874 E8.7907
G1 X92.921 Y109.612 E8.82159
G1 X92.38 Y109.328 E8.85207
G1 X92.281 Y109.274 E8.8577
G1 X91.644 Y108.881 E8.89504
G1 X91.259 Y108.594 E8.919
G1 X90.798 Y108.225 E8.94846
G1 X90.239 Y107.727 E8.98581
G1 X89.795 Y107.242 E9.01861
G1 X89.419 Y106.791 E9.04791
G1 X88.972 Y106.192 E9.0852
G1 X88.649 Y105.658 E9.11633
G1 X88.369 Y105.144 E9.14553
G1 X88.047 Y104.469 E9.18284
G1 X87.83 Y103.846 E9.21576
G1 X87.682 Y103.403 E9.23906
G1 X87.49 Y102.68 E9.27638
G1 X87.374 Y101.918 E9.31483
G1 X87.318 Y101.34 E9.34381
G1 X87.285 Y100.593 E9.38111
G1 X87.329 Y99.879 E9.4168
G1 X87.37 Y99.441 E9.43875
G1 X87.479 Y98.701 E9.47606
G1 X87.672 Y97.957 E9.51441
G1 X87.848 Y97.405 E9.54332
G1 X88.113 Y96.705 E9.58066
G1 X88.365 Y96.192 E9.60917
G1 X88.644 Y95.678 E9.63835
G1 X89.035 Y95.04 E9.67568
G1 X89.494 Y94.446 E9.71313
G1 X89.777 Y94.105 E9.73524
G1 X90.284 Y93.555 E9.77256
G0 F3600 X90.579 Y93.827
G1 F3000 X91.03 Y93.428 E9.8026
G1 X91.489 Y93.058 E9.83202
G1 X92.079 Y92.634 E9.86826
G1 X92.578 Y92.344 E9.89706
G1 X93.109 Y92.067 E9.92694
G1 X93.771 Y91.767 E9.9632
G1 X94.298 Y91.588 E9.99097
G1 X94.862 Y91.422 E10.0203
G1 X95.57 Y91.255 E10.05659
G1 X96.103 Y91.182 E10.08343
G1 X96.694 Y91.126 E10.11305
G1 X97.42 Y91.098 E10.14929
G1 X97.94 Y91.126 E10.17527
G1 X98.531 Y91.182 E10.20489
G1 X99.249 Y91.291 E10.24112
G1 X99.857 Y91.447 E10.27244
G1 X100.288 Y91.571 E10.29481
G1 X100.975 Y91.808 E10.33107
G1 X101.58 Y92.091 E10.36439
G1 X102.101 Y92.368 E10.39383
G1 X102.723 Y92.744 E10.43009
G1 X103.14 Y93.053 E10.45599
G1 X103.6 Y93.423 E10.48544
G1 X104.14 Y93.909 E10.52168
G1 X104.548 Y94.359 E10.55199
G1 X104.922 Y94.811 E10.58126
G1 X105.354 Y95.395 E10.6175
G1 X105.625 Y95.847 E10.64379
G1 X105.906 Y96.36 E10.67297
G1 X106.22 Y97.016 E10.70926
G1 X106.457 Y97.691 E10.74495
G1 X106.571 Y98.043 E10.76341
G1 X106.757 Y98.745 E10.79964
G1 X106.864 Y99.458 E10.83561
G1 X106.919 Y100.036 E10.86457
G1 X106.948 Y100.762 E10.90082
G1 X106.92 Y101.283 E10.92685
G1 X106.865 Y101.864 E10.95597
G1 X106.756 Y102.582 E10.9922
G1 X106.58 Y103.254 E11.02686
G1 X106.403 Y103.807 E11.05583
G1 X106.144 Y104.485 E11.09204
G1 X105.918 Y104.944 E11.11756
G1 X105.639 Y105.458 E11.14674
G1 X105.257 Y106.076 E11.18299
G1 X104.862 Y106.588 E11.21525
G1 X104.561 Y106.954 E11.23889
G1 X104.069 Y107.489 E11.27515
G1 X103.526 Y107.962 E11.31108
G1 X103.162 Y108.257 E11.33445
G1 X102.573 Y108.682 E11.37069
G1 X101.98 Y109.021 E11.40477
G1 X101.598 Y109.225 E11.42637
G1 X100.939 Y109.532 E11.46264
G1 X100.318 Y109.746 E11.49541
G1 X99.745 Y109.912 E11.52518
G1 X99.037 Y110.076 E11.56143
G1 X98.531 Y110.144 E11.5869
G1 X97.94 Y110.2 E11.61652
G1 X97.214 Y110.228 E11.65277
G1 X96.694 Y110.2 E11.67875
G1 X96.103 Y110.144 E11.70837
G1 X95.385 Y110.035 E11.7446
G1 X94.866 Y109.905 E11.77129
G1 X94.301 Y109.739 E11.80067
G1 X93.616 Y109.497 E11.83692
G1 X93.106 Y109.257 E11.86504
G1 X92.572 Y108.977 E11.89512
G1 X92.473 Y108.923 E11.90074
G1 X91.855 Y108.541 E11.93699
G1 X91.509 Y108.282 E11.95855
G1 X91.048 Y107.913 E11.98801
G1 X90.506 Y107.428 E12.0243
G1 X90.103 Y106.986 E12.05414
G1 X89.727 Y106.535 E12.08343
G1 X89.293 Y105.953 E12.11965
G1 X89 Y105.466 E12.14801
G1 X88.72 Y104.952 E12.17721
G1 X88.408 Y104.296 E12.21345
G1 X88.209 Y103.722 E12.24376
G1 X88.063 Y103.279 E12.26703
G1 X87.877 Y102.577 E12.30326
G1 X87.772 Y101.879 E12.33848
G1 X87.716 Y101.301 E12.36745
G1 X87.686 Y100.576 E12.40365
G1 X87.727 Y99.924 E12.43624
G1 X87.769 Y99.478 E12.45859
G1 X87.875 Y98.759 E12.49485
G1 X88.053 Y98.078 E12.52997
G1 X88.229 Y97.526 E12.55887
G1 X88.487 Y96.847 E12.59511
G1 X88.716 Y96.382 E12.62097
G1 X88.995 Y95.868 E12.65015
G1 X89.377 Y95.25 E12.6864
G1 X89.797 Y94.708 E12.72061
G1 X90.086 Y94.36 E12.74317
G1 X90.579 Y93.827 E12.7794
G0 F3600 X90.873 Y94.099
G1 F3000 X91.281 Y93.739 E12.80654
G1 X91.74 Y93.369 E12.83596
G1 X92.312 Y92.959 E12.87107
G1 X92.763 Y92.699 E12.89704
G1 X93.294 Y92.422 E12.92692
G1 X93.936 Y92.132 E12.96206
G1 X94.411 Y91.971 E12.98709
G1 X94.975 Y91.805 E13.01642
G1 X95.661 Y91.645 E13.05156
G1 X96.141 Y91.581 E13.07572
G1 X96.732 Y91.525 E13.10534
G1 X97.436 Y91.498 E13.14049
G1 X97.902 Y91.525 E13.16377
G1 X98.493 Y91.581 E13.19339
G1 X99.189 Y91.687 E13.22851
G1 X99.739 Y91.83 E13.25687
G1 X100.178 Y91.956 E13.27965
G1 X100.844 Y92.186 E13.31481
G1 X101.393 Y92.445 E13.34509
G1 X101.914 Y92.722 E13.37453
G1 X102.515 Y93.087 E13.40961
G1 X102.889 Y93.365 E13.43286
G1 X103.349 Y93.735 E13.46231
G1 X103.872 Y94.207 E13.49746
G1 X104.24 Y94.614 E13.52483
G1 X104.614 Y95.066 E13.5541
G1 X105.031 Y95.633 E13.58922
G1 X105.275 Y96.039 E13.61285
G1 X105.556 Y96.552 E13.64203
G1 X105.858 Y97.188 E13.67715
G1 X106.075 Y97.812 E13.71012
G1 X106.19 Y98.166 E13.72868
G1 X106.37 Y98.847 E13.76383
G1 X106.466 Y99.496 E13.79656
G1 X106.521 Y100.074 E13.82552
G1 X106.548 Y100.777 E13.86062
G1 X106.521 Y101.245 E13.88401
G1 X106.466 Y101.826 E13.91313
G1 X106.36 Y102.522 E13.94825
G1 X106.199 Y103.132 E13.97973
G1 X106.022 Y103.685 E14.00869
G1 X105.77 Y104.342 E14.0438
G1 X105.566 Y104.753 E14.06669
G1 X105.287 Y105.267 E14.09587
G1 X104.917 Y105.865 E14.13095
G1 X104.561 Y106.326 E14.16001
G1 X104.252 Y106.7 E14.18422
G1 X103.774 Y107.218 E14.21938
G1 X103.274 Y107.651 E14.25238
G1 X102.91 Y107.946 E14.27575
G1 X102.338 Y108.357 E14.31089
G1 X101.8 Y108.664 E14.3418
G1 X101.409 Y108.872 E14.36389
G1 X100.77 Y109.169 E14.39905
G1 X100.206 Y109.362 E14.42879
G1 X99.633 Y109.528 E14.45855
G1 X98.947 Y109.685 E14.49366
G1 X98.493 Y109.745 E14.51651
G1 X97.902 Y109.801 E14.54612
G1 X97.198 Y109.828 E14.58127
G1 X96.732 Y109.801 E14.60456
G1 X96.141 Y109.745 E14.63418
G1 X95.445 Y109.639 E14.6693
G1 X94.978 Y109.522 E14.69332
G1 X94.413 Y109.356 E14.7227
G1 X93.75 Y109.119 E14.75783
G1 X93.291 Y108.903 E14.78314
G1 X92.763 Y108.626 E14.81288
G1 X92.664 Y108.572 E14.81851
G1 X92.066 Y108.2 E14.85364
G1 X91.759 Y107.969 E14.87281
G1 X91.298 Y107.6 E14.90227
G1 X90.774 Y107.13 E14.93739
G1 X90.41 Y106.73 E14.96437
G1 X90.034 Y106.279 E14.99367
G1 X89.615 Y105.714 E15.02876
G1 X89.351 Y105.275 E15.05432
G1 X89.071 Y104.761 E15.08352
G1 X88.77 Y104.125 E15.11862
G1 X88.589 Y103.599 E15.14638
G1 X88.443 Y103.156 E15.16965
G1 X88.265 Y102.475 E15.20476
G1 X88.17 Y101.841 E15.23675
G1 X88.114 Y101.263 E15.26572
G1 X88.086 Y100.559 E15.30087
G1 X88.124 Y99.969 E15.33036
G1 X88.167 Y99.515 E15.35312
G1 X88.271 Y98.818 E15.38827
G1 X88.434 Y98.2 E15.42016
G1 X88.61 Y97.648 E15.44907
G1 X88.862 Y96.99 E15.48422
G1 X89.068 Y96.573 E15.50742
G1 X89.347 Y96.059 E15.5366
G1 X89.717 Y95.461 E15.57168
G1 X90.1 Y94.969 E15.60279
G1 X90.394 Y94.615 E15.62575
G1 X90.873 Y94.099 E15.66087
G0 F3600 X91.166 Y94.372
G1 F3000 X91.532 Y94.05 E15.68519
G1 X91.991 Y93.68 E15.71461
G1 X92.545 Y93.285 E15.74855
G1 X92.948 Y93.054 E15.77173
G1 X93.479 Y92.777 E15.80161
G1 X94.101 Y92.498 E15.83562
G1 X94.524 Y92.355 E15.85789
G1 X95.088 Y92.189 E15.88723
G1 X95.752 Y92.035 E15.92123
G1 X96.179 Y91.979 E15.94272
G1 X96.77 Y91.923 E15.97234
G1 X97.45 Y91.899 E16.00628
G1 X97.864 Y91.923 E16.02697
G1 X98.455 Y91.979 E16.05659
G1 X99.128 Y92.083 E16.09056
G1 X99.643 Y92.219 E16.11714
G1 X100.069 Y92.34 E16.13923
G1 X100.712 Y92.565 E16.17322
G1 X101.205 Y92.798 E16.20042
G1 X101.726 Y93.075 E16.22986
G1 X102.307 Y93.429 E16.2638
G1 X102.638 Y93.677 E16.28444
G1 X103.098 Y94.047 E16.31389
G1 X103.603 Y94.504 E16.34787
G1 X103.932 Y94.869 E16.37239
G1 X104.306 Y95.321 E16.40165
G1 X104.708 Y95.87 E16.4356
G1 X104.924 Y96.232 E16.45663
G1 X105.205 Y96.745 E16.48581
G1 X105.496 Y97.36 E16.51976
G1 X105.69 Y97.921 E16.54937
G1 X105.81 Y98.29 E16.56873
G1 X105.982 Y98.949 E16.60271
G1 X106.068 Y99.534 E16.63221
