;FLAVOR:Marlin
;TIME:1169
;Filament used: 1.13897m
;Layer height: 0.2
;MINX:90.258
;MINY:68.393
;MINZ:0.3
;MAXX:126.985
;MAXY:103.03
;MAXZ:19.9
;Generated with Cura_SteamEngine 4.13.1
M140 S60
M105
M190 S60
M104 S200
M105
M109 S200
M82 ;absolute extrusion mode
G21 ;metric values
 G90 ;absolute positioning
 M82 ;set extruder to absolute mode
 M107 ;start with the fan off
 G28 X0 Y0 ;move X/Y to min endstops
 G28 Z0 ;move Z to min endstops
 G1 Z15.0 F120 ;move the platform down 15mm
 G92 E0 ;zero the extruded length
 G1 F200 E6 ;extrude 6 mm of feed stock
 G92 E0 ;zero the extruded length again
 G1 F120 
 ;Put printing message on LCD screen
 M117 Printing...
G92 E0
G92 E0
G1 F1500 E-6.5
;LAYER_COUNT:100
;LAYER:0
M107
G0 F3600 X94.555 Y72.565 Z0.3
;TYPE:SKIRT
G1 F1500 E0
G1 F3000 X95.052 Y71.951 E0.03941
G1 X95.609 Y71.392 E0.07878
G1 X96.22 Y70.891 E0.1182
G1 X96.878 Y70.455 E0.15758
G1 X97.577 Y70.087 E0.19699
G1 X98.31 Y69.792 E0.23641
G1 X98.677 Y69.681 E0.25554
G1 X99.357 Y69.28 E0.29493
G1 X100.075 Y68.95 E0.33435
G1 X100.822 Y68.695 E0.37373
G1 X101.591 Y68.516 E0.41312
G1 X102.375 Y68.416 E0.45255
G1 X102.97 Y68.393 E0.48226
G1 X103.849 Y68.393 E0.52611
G1 X104.638 Y68.433 E0.56552
G1 X105.418 Y68.552 E0.60489
G1 X106.183 Y68.75 E0.64431
G1 X106.488 Y68.858 E0.66046
G1 X111.216 Y68.858 E0.89634
G1 X111.997 Y68.685 E0.93625
G1 X112.781 Y68.595 E0.97562
G1 X113.28 Y68.579 E1.00052
G1 X114.244 Y68.579 E1.04862
G1 X115.033 Y68.619 E1.08803
G1 X115.813 Y68.738 E1.1274
G1 X116.578 Y68.936 E1.16682
G1 X117.318 Y69.21 E1.20619
G1 X118.027 Y69.558 E1.24559
G1 X118.698 Y69.976 E1.28503
G1 X118.917 Y70.095 E1.29747
G1 X119.657 Y70.369 E1.33684
G1 X120.366 Y70.717 E1.37624
G1 X121.037 Y71.135 E1.41568
G1 X121.661 Y71.618 E1.45505
G1 X122.234 Y72.161 E1.49443
G1 X122.749 Y72.76 E1.53384
G1 X123.2 Y73.408 E1.57323
G1 X123.584 Y74.099 E1.61267
G1 X123.896 Y74.824 E1.65205
G1 X124.133 Y75.577 E1.69143
G1 X124.292 Y76.351 E1.73085
G1 X124.351 Y77.023 E1.76451
G1 X124.471 Y77.545 E1.79123
G1 X124.569 Y78.329 E1.83065
G1 X124.59 Y78.855 E1.85691
G1 X124.592 Y79.18 E1.87313
G1 X124.557 Y79.969 E1.91253
G1 X124.489 Y80.53 E1.94072
G1 X125.074 Y81.447 E1.99499
G1 X125.249 Y81.769 E2.01327
G1 X125.591 Y82.481 E2.05268
G1 X125.855 Y83.213 E2.0915
G1 X126.074 Y83.987 E2.13163
G1 X126.233 Y84.443 E2.15573
G1 X126.44 Y85.116 E2.19085
G1 X126.634 Y85.881 E2.23023
G1 X126.747 Y86.636 E2.26831
G1 X126.812 Y87.289 E2.30105
G1 X126.875 Y87.916 E2.33249
G1 X126.946 Y88.622 E2.36789
G1 X126.985 Y89.402 E2.40686
G1 X126.985 Y89.44 E2.40875
G1 X126.946 Y90.22 E2.44771
G1 X126.875 Y90.926 E2.48311
G1 X126.816 Y91.521 E2.51294
G1 X126.746 Y92.215 E2.54774
G1 X126.627 Y92.995 E2.58711
G1 X126.436 Y93.74 E2.62548
G1 X126.208 Y94.476 E2.66392
G1 X126.006 Y95.137 E2.6984
G1 X125.849 Y95.649 E2.72512
G1 X125.43 Y96.724 E2.78268
G1 X125.082 Y97.395 E2.82039
G1 X124.666 Y98.072 E2.86004
G1 X124.493 Y98.468 E2.8816
G1 X124.192 Y99.016 E2.91279
G1 X124.06 Y99.235 E2.92554
G1 X123.619 Y99.889 E2.9649
G1 X123.248 Y100.346 E2.99427
G1 X122.702 Y100.916 E3.03364
G1 X122.1 Y101.428 E3.07307
G1 X121.45 Y101.876 E3.11246
G1 X120.758 Y102.256 E3.15184
G1 X120.031 Y102.564 E3.19123
G1 X119.276 Y102.797 E3.23065
G1 X118.502 Y102.953 E3.27005
G1 X117.716 Y103.03 E3.30945
G1 X116.926 Y103.026 E3.34886
G1 X116.141 Y102.943 E3.38824
G1 X115.368 Y102.781 E3.42765
G1 X114.616 Y102.542 E3.46701
G1 X113.891 Y102.227 E3.50645
G1 X113.202 Y101.841 E3.54585
G1 X112.556 Y101.388 E3.58521
G1 X111.959 Y100.871 E3.62461
G1 X111.417 Y100.297 E3.664
G1 X110.936 Y99.67 E3.70343
G1 X110.803 Y99.456 E3.716
G1 X110.536 Y99.519 E3.72968
G1 X109.859 Y99.613 E3.76378
G1 X109.363 Y99.66 E3.78864
G1 X108.608 Y99.695 E3.82635
G1 X107.656 Y99.637 E3.87393
G1 X107.111 Y99.57 E3.90133
G1 X106.333 Y99.434 E3.94073
G1 X105.501 Y99.207 E3.98375
G1 X104.871 Y98.995 E4.01692
G1 X104.697 Y98.916 E4.02645
G1 X104.522 Y99.11 E4.03949
G1 X103.937 Y99.641 E4.0789
G1 X103.302 Y100.11 E4.11829
G1 X102.623 Y100.513 E4.15768
G1 X101.906 Y100.845 E4.1971
G1 X101.16 Y101.102 E4.23646
G1 X100.391 Y101.283 E4.27588
G1 X99.608 Y101.386 E4.31528
G1 X98.819 Y101.408 E4.35466
G1 X98.031 Y101.351 E4.39407
G1 X97.253 Y101.214 E4.43348
G1 X96.493 Y100.999 E4.47289
G1 X95.759 Y100.709 E4.51226
G1 X95.058 Y100.346 E4.55165
G1 X94.397 Y99.914 E4.59104
G1 X93.783 Y99.417 E4.63045
G1 X93.223 Y98.86 E4.66986
G1 X92.721 Y98.25 E4.70927
G1 X92.141 Y97.341 E4.76307
G1 X92.013 Y97.106 E4.77642
G1 X91.671 Y96.394 E4.81583
G1 X91.409 Y95.672 E4.85414
G1 X91.295 Y95.302 E4.87346
G1 X91.159 Y94.765 E4.9011
G1 X90.957 Y94.213 E4.93042
G1 X90.81 Y93.742 E4.95504
G1 X90.613 Y92.977 E4.99445
G1 X90.495 Y92.197 E5.03381
G1 X90.297 Y90.224 E5.13273
G1 X90.258 Y89.445 E5.17165
G1 X90.258 Y89.4 E5.17389
G1 X90.297 Y88.617 E5.213
G1 X90.378 Y87.814 E5.25327
G1 X90.42 Y87.39 E5.27453
G1 X90.495 Y86.643 E5.31198
G1 X90.614 Y85.862 E5.3514
G1 X90.804 Y85.119 E5.38966
G1 X91.008 Y84.459 E5.42412
G1 X91.255 Y83.659 E5.46589
G1 X91.404 Y83.175 E5.49116
G1 X91.675 Y82.433 E5.53057
G1 X92.01 Y81.738 E5.56906
G1 X92.204 Y81.382 E5.58929
G1 X92.621 Y80.702 E5.62908
G1 X92.864 Y80.183 E5.65767
G1 X92.814 Y79.225 E5.70553
G1 X92.829 Y78.585 E5.73747
G1 X92.888 Y77.798 E5.77685
G1 X93.025 Y77.02 E5.81626
G1 X93.062 Y76.89 E5.823
G1 X93.113 Y76.197 E5.85767
G1 X93.251 Y75.419 E5.89709
G1 X93.467 Y74.66 E5.93646
G1 X93.758 Y73.926 E5.97585
G1 X94.122 Y73.225 E6.01526
G1 X94.555 Y72.565 E6.05464
G0 F3600 X94.949 Y72.704
G1 F3000 X95.444 Y72.116 E6.09299
G1 X95.998 Y71.581 E6.13141
G1 X96.604 Y71.108 E6.16976
G1 X97.256 Y70.699 E6.20816
G1 X97.946 Y70.361 E6.24649
G1 X98.668 Y70.096 E6.28486
G1 X98.931 Y69.993 E6.29896
G1 X99.596 Y69.607 E6.33732
G1 X100.298 Y69.292 E6.3757
G1 X101.029 Y69.052 E6.41409
G1 X101.78 Y68.889 E6.45243
G1 X102.545 Y68.805 E6.49082
G1 X102.97 Y68.793 E6.51204
G1 X103.849 Y68.793 E6.55589
G1 X104.617 Y68.833 E6.59426
G1 X105.377 Y68.952 E6.63264
G1 X106.12 Y69.15 E6.671
G1 X106.422 Y69.258 E6.687
G1 X111.291 Y69.258 E6.92991
G1 X111.427 Y69.215 E6.93703
G1 X112.181 Y69.061 E6.97542
G1 X113.28 Y68.979 E7.03041
G1 X114.244 Y68.979 E7.0785
G1 X115.012 Y69.019 E7.11687
G1 X115.772 Y69.138 E7.15525
G1 X116.515 Y69.336 E7.19361
G1 X117.234 Y69.61 E7.232
G1 X117.92 Y69.957 E7.27035
G1 X118.567 Y70.373 E7.30873
G1 X118.652 Y70.441 E7.31416
G1 X118.854 Y70.495 E7.32459
G1 X119.573 Y70.769 E7.36298
G1 X120.259 Y71.116 E7.40133
G1 X120.906 Y71.532 E7.4397
G1 X121.506 Y72.013 E7.47807
G1 X122.053 Y72.554 E7.51645
G1 X122.541 Y73.149 E7.55484
G1 X122.964 Y73.791 E7.5932
G1 X123.319 Y74.474 E7.6316
G1 X123.6 Y75.189 E7.66993
G1 X123.806 Y75.931 E7.70835
G1 X123.934 Y76.689 E7.7467
G1 X123.962 Y77.105 E7.7675
G1 X124.097 Y77.733 E7.79955
G1 X124.19 Y78.857 E7.85582
G1 X124.192 Y79.182 E7.87203
G1 X124.157 Y79.951 E7.91044
G1 X124.08 Y80.656 E7.94582
G1 X124.488 Y81.237 E7.98124
G1 X124.898 Y81.96 E8.02271
G1 X125.229 Y82.654 E8.06107
G1 X125.473 Y83.33 E8.09692
G1 X125.691 Y84.102 E8.13694
G1 X125.851 Y84.561 E8.16119
G1 X126.058 Y85.234 E8.19632
G1 X126.246 Y85.979 E8.23466
G1 X126.349 Y86.676 E8.26981
G1 X126.414 Y87.329 E8.30255
G1 X126.477 Y87.956 E8.33399
G1 X126.548 Y88.662 E8.36939
G1 X126.585 Y89.402 E8.40635
G1 X126.585 Y89.44 E8.40825
G1 X126.548 Y90.18 E8.44521
G1 X126.477 Y90.886 E8.48061
G1 X126.418 Y91.481 E8.51044
G1 X126.348 Y92.175 E8.54524
G1 X126.231 Y92.935 E8.5836
G1 X126.054 Y93.622 E8.619
G1 X125.826 Y94.358 E8.65744
G1 X125.624 Y95.019 E8.69192
G1 X125.467 Y95.531 E8.71864
G1 X125.069 Y96.551 E8.77326
G1 X124.73 Y97.204 E8.80997
G1 X124.328 Y97.859 E8.84831
G1 X124.209 Y98.137 E8.8634
G1 X123.85 Y98.809 E8.90141
G1 X123.718 Y99.028 E8.91417
G1 X123.287 Y99.665 E8.95254
G1 X122.946 Y100.084 E8.97949
G1 X122.413 Y100.639 E9.01788
G1 X121.825 Y101.135 E9.05626
G1 X121.189 Y101.567 E9.09462
G1 X120.511 Y101.931 E9.13301
G1 X119.799 Y102.222 E9.17138
G1 X119.061 Y102.438 E9.20975
G1 X118.304 Y102.577 E9.24814
G1 X117.538 Y102.636 E9.28647
G1 X116.769 Y102.615 E9.32485
G1 X116.006 Y102.514 E9.36325
G1 X115.258 Y102.335 E9.40162
G1 X114.533 Y102.079 E9.43998
G1 X113.838 Y101.749 E9.47837
G1 X113.181 Y101.349 E9.51674
G1 X112.569 Y100.883 E9.55512
G1 X112.009 Y100.356 E9.59348
G1 X111.507 Y99.773 E9.63187
G1 X111.068 Y99.142 E9.67022
G1 X110.99 Y99.001 E9.67825
G1 X110.444 Y99.129 E9.70623
G1 X109.821 Y99.215 E9.73761
G1 X109.325 Y99.262 E9.76247
G1 X108.608 Y99.295 E9.79828
G1 X107.705 Y99.24 E9.84341
G1 X107.16 Y99.173 E9.8708
G1 X106.403 Y99.039 E9.90916
G1 X105.612 Y98.822 E9.95008
G1 X105.014 Y98.621 E9.98155
G1 X104.598 Y98.439 E10.00421
G1 X104.066 Y98.995 E10.0426
G1 X103.48 Y99.493 E10.08097
G1 X102.845 Y99.927 E10.11934
G1 X102.168 Y100.293 E10.15773
G1 X101.458 Y100.587 E10.19607
G1 X100.72 Y100.805 E10.23446
G1 X99.964 Y100.946 E10.27283
G1 X99.197 Y101.007 E10.31122
G1 X98.428 Y100.989 E10.34959
G1 X97.665 Y100.89 E10.38798
G1 X96.917 Y100.713 E10.42633
G1 X96.191 Y100.46 E10.46469
G1 X95.495 Y100.132 E10.50307
G1 X94.837 Y99.734 E10.54144
G1 X94.224 Y99.27 E10.57979
G1 X93.662 Y98.744 E10.6182
G1 X93.158 Y98.163 E10.65657
G1 X92.717 Y97.533 E10.69494
G1 X92.364 Y96.915 E10.73044
G1 X92.032 Y96.221 E10.76882
G1 X91.791 Y95.554 E10.80421
G1 X91.677 Y95.184 E10.82352
G1 X91.548 Y94.673 E10.84982
G1 X91.538 Y94.651 E10.85102
G1 X91.339 Y94.094 E10.88053
G1 X91.192 Y93.623 E10.90515
G1 X91.001 Y92.878 E10.94352
G1 X90.893 Y92.157 E10.97989
G1 X90.695 Y90.184 E11.07882
G1 X90.658 Y89.445 E11.11573
G1 X90.658 Y89.4 E11.11798
G1 X90.695 Y88.657 E11.15509
G1 X90.776 Y87.854 E11.19536
G1 X90.818 Y87.43 E11.21661
G1 X90.893 Y86.683 E11.25407
G1 X91.01 Y85.922 E11.29248
G1 X91.186 Y85.237 E11.32777
G1 X91.39 Y84.577 E11.36223
G1 X91.638 Y83.777 E11.40402
G1 X91.787 Y83.293 E11.42928
G1 X92.051 Y82.57 E11.46768
G1 X92.361 Y81.929 E11.50321
G1 X92.555 Y81.573 E11.52343
G1 X92.958 Y80.918 E11.5618
G1 X92.988 Y80.878 E11.56429
G1 X93.265 Y80.27 E11.59763
G1 X93.258 Y80.23 E11.59965
G1 X93.214 Y79.235 E11.64934
G1 X93.229 Y78.595 E11.68128
G1 X93.287 Y77.828 E11.71966
G1 X93.424 Y77.071 E11.75804
G1 X93.458 Y76.954 E11.76412
G1 X93.513 Y76.227 E11.80049
G1 X93.65 Y75.47 E11.83887
G1 X93.865 Y74.732 E11.87722
G1 X94.155 Y74.019 E11.91562
G1 X94.518 Y73.341 E11.95399
G1 X94.949 Y72.704 E11.99236
G0 F3600 X95.344 Y72.848
G1 F3000 X95.836 Y72.285 E12.02966
G1 X96.385 Y71.777 E12.06698
G1 X96.986 Y71.331 E12.10432
G1 X97.631 Y70.952 E12.14164
G1 X98.312 Y70.643 E12.17895
G1 X99.023 Y70.409 E12.21629
G1 X99.183 Y70.306 E12.22579
G1 X99.833 Y69.935 E12.26313
G1 X100.519 Y69.636 E12.30046
G1 X101.233 Y69.412 E12.33779
G1 X101.966 Y69.265 E12.37509
G1 X102.97 Y69.193 E12.42531
G1 X103.849 Y69.193 E12.46916
G1 X104.596 Y69.233 E12.50648
G1 X105.334 Y69.352 E12.54378
G1 X106.056 Y69.55 E12.58113
G1 X106.354 Y69.658 E12.59694
G1 X111.357 Y69.658 E12.84654
G1 X111.627 Y69.577 E12.86061
G1 X112.362 Y69.439 E12.89792
G1 X113.28 Y69.379 E12.94381
G1 X114.244 Y69.379 E12.99191
G1 X114.991 Y69.419 E13.02923
G1 X115.729 Y69.538 E13.06652
G1 X116.451 Y69.736 E13.10388
G1 X117.147 Y70.009 E13.14117
G1 X117.81 Y70.356 E13.17851
G1 X118.433 Y70.771 E13.21585
G1 X118.79 Y70.895 E13.23471
G1 X119.486 Y71.168 E13.27201
G1 X120.149 Y71.515 E13.30934
G1 X120.772 Y71.93 E13.34669
G1 X121.346 Y72.409 E13.38399
G1 X121.867 Y72.946 E13.42131
G1 X122.326 Y73.536 E13.45861
G1 X122.721 Y74.172 E13.49596
G1 X123.045 Y74.846 E13.53327
G1 X123.295 Y75.551 E13.57059
G1 X123.469 Y76.279 E13.60793
G1 X123.553 Y77.111 E13.64965
G1 X123.576 Y77.184 E13.65347
G1 X123.72 Y77.918 E13.69079
G1 X123.79 Y78.86 E13.73791
G1 X123.792 Y79.185 E13.75413
G1 X123.756 Y79.932 E13.79144
G1 X123.705 Y80.267 E13.80834
G1 X123.67 Y80.785 E13.83425
G1 X124.066 Y81.321 E13.86749
G1 X124.371 Y81.829 E13.89706
G1 X124.546 Y82.151 E13.91534
G1 X124.868 Y82.827 E13.9527
G1 X125.09 Y83.447 E13.98555
G1 X125.318 Y84.26 E14.02768
G1 X125.469 Y84.678 E14.04985
G1 X125.676 Y85.351 E14.08498
G1 X125.857 Y86.077 E14.12231
G1 X125.951 Y86.716 E14.15453
G1 X126.016 Y87.369 E14.18727
G1 X126.079 Y87.996 E14.21871
G1 X126.15 Y88.702 E14.25411
G1 X126.185 Y89.402 E14.28907
G1 X126.185 Y89.44 E14.29097
G1 X126.15 Y90.14 E14.32594
G1 X126.079 Y90.846 E14.36134
G1 X126.02 Y91.44 E14.39112
G1 X125.95 Y92.134 E14.42592
G1 X125.835 Y92.874 E14.46328
G1 X125.672 Y93.503 E14.4957
G1 X125.444 Y94.239 E14.53414
G1 X125.241 Y94.902 E14.56873
G1 X125.084 Y95.414 E14.59545
G1 X124.709 Y96.379 E14.6471
G1 X124.379 Y97.012 E14.68271
G1 X123.986 Y97.649 E14.72006
G1 X123.911 Y97.827 E14.72969
G1 X123.507 Y98.603 E14.77334
G1 X123.375 Y98.822 E14.7861
G1 X122.955 Y99.441 E14.82342
G1 X122.644 Y99.823 E14.84799
G1 X122.124 Y100.361 E14.88532
G1 X121.55 Y100.841 E14.92265
G1 X120.929 Y101.256 E14.95991
G1 X120.266 Y101.604 E14.99727
G1 X119.57 Y101.878 E15.03459
G1 X118.849 Y102.077 E15.0719
G1 X118.111 Y102.197 E15.10921
G1 X117.364 Y102.238 E15.14653
G1 X116.617 Y102.199 E15.18385
G1 X115.878 Y102.081 E15.22119
G1 X115.156 Y101.884 E15.25852
G1 X114.459 Y101.612 E15.29585
G1 X113.796 Y101.266 E15.33316
G1 X113.173 Y100.852 E15.37048
G1 X112.598 Y100.374 E15.40778
G1 X112.077 Y99.837 E15.44511
G1 X111.616 Y99.248 E15.48243
G1 X111.221 Y98.612 E15.51978
G1 X111.186 Y98.539 E15.52382
G1 X111.081 Y98.569 E15.52927
G1 X110.352 Y98.739 E15.56661
G1 X109.783 Y98.817 E15.59527
G1 X109.287 Y98.864 E15.62012
G1 X108.608 Y98.895 E15.65403
G1 X107.754 Y98.843 E15.69672
G1 X107.209 Y98.776 E15.72411
G1 X106.117 Y98.552 E15.77973
G1 X105.723 Y98.438 E15.80019
G1 X105.156 Y98.247 E15.83004
G1 X104.481 Y97.94 E15.86704
G1 X104.145 Y98.347 E15.89337
G1 X103.61 Y98.87 E15.93069
G1 X103.022 Y99.333 E15.96803
G1 X102.388 Y99.73 E16.00535
G1 X101.716 Y100.058 E16.04266
G1 X101.012 Y100.312 E16.08
G1 X100.286 Y100.489 E16.11728
G1 X99.544 Y100.588 E16.15462
G1 X98.796 Y100.607 E16.19195
G1 X98.051 Y100.547 E16.22924
G1 X97.316 Y100.407 E16.26657
G1 X96.6 Y100.189 E16.30391
G1 X95.912 Y99.896 E16.34122
G1 X95.258 Y99.532 E16.37856
G1 X94.648 Y99.1 E16.41585
G1 X94.087 Y98.605 E16.45318
G1 X93.582 Y98.053 E16.4905
G1 X93.139 Y97.45 E16.52783
G1 X92.844 Y96.958 E16.55645
G1 X92.716 Y96.723 E16.5698
G1 X92.394 Y96.048 E16.60712
G1 X92.173 Y95.436 E16.63958
G1 X92.059 Y95.066 E16.65889
G1 X91.922 Y94.518 E16.68708
G1 X91.721 Y93.975 E16.71596
G1 X91.574 Y93.504 E16.74058
G1 X91.389 Y92.779 E16.77791
G1 X91.291 Y92.117 E16.81129
G1 X91.093 Y90.144 E16.91022
G1 X91.058 Y89.445 E16.94514
G1 X91.058 Y89.4 E16.94738
G1 X91.093 Y88.697 E16.9825
G1 X91.174 Y87.894 E17.02277
G1 X91.216 Y87.47 E17.04402
G1 X91.291 Y86.723 E17.08148
G1 X91.405 Y85.983 E17.11883
G1 X91.568 Y85.355 E17.1512
G1 X91.772 Y84.695 E17.18567
G1 X92.02 Y83.894 E17.2275
G1 X92.169 Y83.41 E17.25277
G1 X92.427 Y82.708 E17.29008
G1 X92.712 Y82.12 E17.32268
G1 X92.906 Y81.764 E17.3429
G1 X93.299 Y81.128 E17.3802
G1 X93.618 Y80.454 E17.41741
G1 X93.683 Y80.334 E17.42421
G1 X93.643 Y80.063 E17.43788
G1 X93.614 Y79.244 E17.47877
G1 X93.629 Y78.604 E17.51071
G1 X93.686 Y77.858 E17.54803
G1 X93.823 Y77.123 E17.58533
G1 X93.855 Y77.003 E17.59153
G1 X93.912 Y76.257 E17.62886
G1 X94.049 Y75.522 E17.66616
G1 X94.263 Y74.805 E17.70349
G1 X94.553 Y74.115 E17.74083
G1 X94.914 Y73.46 E17.77814
G1 X95.344 Y72.848 E17.81546
G0 F3600 X95.737 Y72.996
G1 F3000 X96.227 Y72.459 E17.85172
G1 X96.772 Y71.979 E17.88796
G1 X97.367 Y71.562 E17.92421
G1 X98.003 Y71.213 E17.9604
G1 X98.675 Y70.936 E17.99666
G1 X99.207 Y70.782 E18.02429
G1 X99.435 Y70.619 E18.03828
G1 X100.069 Y70.265 E18.0745
G1 X100.738 Y69.982 E18.11074
G1 X101.434 Y69.774 E18.14698
G1 X102.149 Y69.644 E18.18324
G1 X102.97 Y69.593 E18.22428
G1 X103.849 Y69.593 E18.26813
G1 X104.574 Y69.633 E18.30436
G1 X105.291 Y69.752 E18.34062
G1 X106.284 Y70.058 E18.39246
G1 X111.417 Y70.058 E18.64855
G1 X111.824 Y69.942 E18.66966
G1 X112.54 Y69.821 E18.70589
G1 X113.28 Y69.779 E18.74287
G1 X114.244 Y69.779 E18.79096
G1 X114.969 Y69.819 E18.82719
G1 X115.686 Y69.938 E18.86345
G1 X116.385 Y70.136 E18.89969
G1 X117.058 Y70.409 E18.93592
